X:3
T:Boss Theme - Dark Fortress
C:AI Composer
M:6/8
L:1/8
Q:3/8=150
K:Dm
V:1 name="Epic"
|: "Dm"D2F A2F | "Gm"G2B d2B | "A"^c2e a2e | "Dm"d2f d3 |
   "Bb"d2f b2f | "C"e2g c'2g | "F"f2a f2c | "A"A2^c e3 :|
|: "Dm"d3 f3 | a2f d2A | "Gm"g3 b3 | d'2b g2d |
   "Bb"f2d b2f | "A"e2^c a2e | "Dm"d2A F2D | D3 D3 :|
|: "Dm"d'2a f2d | A2F D2A | "C"c'2g e2c | G2E C2G |
   "Bb"b2f d2B | F2D B,2F | "A"a2e ^c2A | E2^C A,2E |
   "Gm"g2d B2G | "F"f2c A2F | "A"e2^c "Dm"d2f | "Dm"d3 d3 :|

